X:600
T:Jean Kirkpatrick's Fancy 
C:Joe Buchanan's Scottish Tome - Page 171.1
I:171 1
R:Reel
Z:Carl Allison
L:1/8
M:4/4
K:D
A | "D"d/d/d/d/ cd | "D"fe dA | "D"d/d/d/d/ cd |"Em" e3 d |
"A7"c/c/c/c/ BA | "A7"gg gB | "A7"c/c/c/c/ BA |"D" d/e/f AA |
"D"d/d/d/d/ cd | "D"fe dA | "D"d/d/d/d/ cd | "Em"e3 d |
"A7"c/c/c/c/ BA | "A7"cc c>B | "A7"A/A/A/A/ Bc | "D"d3 :|
A | "D"f/f/f/f/ ef | "D"ed A>A | "D"f/f/f/f/ ed |"Em" g3 B |
"A7"g/g/g/g/ fg | "A7"fe c>B | "A7"B/B/B/B/ AG |"D" F3 A |
"D"f/f/f/f/ ef | "D"ed A>A | "D"f/f/f/f/ ed | "G"b3 B |
"A7"c/c/c/c/ BA | "A7"gg g>A | "A7"A/A/A/A/ Bc | "D"d3 :|

